X:1
T:Cockney Jocks  "arr. Russ Spaulding"
M:C
L:1/8
Q:80
C:John Hays
S:March
K:HP
{g}AB/4c3/4 | \
{Gdc}d4{gdG}d2{g}fa | \
G4{a}g3/2f/2{g}ed |
{g}c3/2d/2{g}ec{g}A2{d}B2 | \
{G}A4agfe | \
{Gdc}d4{gdG}d2{g}fa |
G4{a}g3/2f/2{g}ed | \
{g}c3/2d/2{g}ec{g}A2{d}B3/2c/2 | \
{Gdc}d4{gdG}d2-dA|]
{Gdc}d2{g}fa{Gdc}d2{g}fa | \
G4{a}g3/2f/2{g}ed | \
{g}c3/2d/2{g}ec{g}A2{d}B2 |
{G}A4agfe | \
{Gdc}d2{g}fa{Gdc}d2{g}fa | \
G4{a}g3/2f/2{g}ed |
{g}c3/2d/2{g}ec{g}A2{d}B3/2c/2 | \
{Gdc}d4{gdG}d2-dA|]
{Gdc}dA{g}fd{g}Ad{g}fa |
G4{a}g3/2f/2{g}ed | \
{g}c3/2d/2{g}ec{g}A2{d}B2 | \
{G}A4agfe |
{Gdc}dA{g}fd{g}Ad{g}fa | \
G4{a}g3/2f/2{g}ed | \
{g}c3/2d/2{g}ec{g}A2{d}B3/2c/2 |
{Gdc}d4{gdG}d2|]
